Numix-Circle/48x48/apps/openmw-cs.svg

<?xml version="1.0" encoding="UTF-8" standalone="no"?>
<svg
   xmlns:dc="http://purl.org/dc/elements/1.1/"
   xmlns:cc="http://creativecommons.org/ns#"
   xmlns:rdf="http://www.w3.org/1999/02/22-rdf-syntax-ns#"
   xmlns:svg="http://www.w3.org/2000/svg"
   xmlns="http://www.w3.org/2000/svg"
   xmlns:xlink="http://www.w3.org/1999/xlink"
   xmlns:sodipodi="http://sodipodi.sourceforge.net/DTD/sodipodi-0.dtd"
   xmlns:inkscape="http://www.inkscape.org/namespaces/inkscape"
   viewBox="0 0 48 48"
   id="svg2"
   version="1.1"
   inkscape:version="0.91 r13725"
   width="100%"
   height="100%"
   sodipodi:docname="openmw-cs.svg">
  <metadata
     id="metadata77">
    <rdf:RDF>
      <cc:Work
         rdf:about="">
        <dc:format>image/svg+xml</dc:format>
        <dc:type
           rdf:resource="http://purl.org/dc/dcmitype/StillImage" />
      </cc:Work>
    </rdf:RDF>
  </metadata>
  <sodipodi:namedview
     pagecolor="#ffffff"
     bordercolor="#666666"
     borderopacity="1"
     objecttolerance="10"
     gridtolerance="10"
     guidetolerance="10"
     inkscape:pageopacity="0"
     inkscape:pageshadow="2"
     inkscape:window-width="1366"
     inkscape:window-height="713"
     id="namedview75"
     showgrid="false"
     inkscape:zoom="11.123334"
     inkscape:cx="17.508068"
     inkscape:cy="21.756613"
     inkscape:window-x="0"
     inkscape:window-y="28"
     inkscape:window-maximized="1"
     inkscape:current-layer="svg2">
    <inkscape:grid
       type="xygrid"
       id="grid3071" />
  </sodipodi:namedview>
  <defs
     id="defs4">
    <linearGradient
       id="linearGradient3764"
       x1="1"
       x2="47"
       gradientUnits="userSpaceOnUse"
       gradientTransform="matrix(0,-1,1,0,-1.5e-6,47.999998)">
      <stop
         stop-color="#3d3d3d"
         stop-opacity="1"
         id="stop7" />
      <stop
         offset="1"
         stop-color="#474747"
         stop-opacity="1"
         id="stop9" />
    </linearGradient>
    <linearGradient
       inkscape:collect="always"
       xlink:href="#linearGradient3764"
       id="linearGradient3945"
       gradientUnits="userSpaceOnUse"
       gradientTransform="matrix(0,-1,1,0,-1.5e-6,47.999998)"
       x1="1"
       x2="47" />
  </defs>
  <path
     style="opacity:0.05"
     inkscape:connector-curvature="0"
     id="path23"
     d="m 36.31,5 c 5.859,4.062 9.688,10.831 9.688,18.5 0,12.426 -10.07,22.5 -22.5,22.5 -7.669,0 -14.438,-3.828 -18.5,-9.688 1.037,1.822 2.306,3.499 3.781,4.969 4.085,3.712 9.514,5.969 15.469,5.969 12.703,0 23,-10.298 23,-23 0,-5.954 -2.256,-11.384 -5.969,-15.469 C 39.81,7.306 38.132,6.037 36.31,5 z m 4.969,3.781 c 3.854,4.113 6.219,9.637 6.219,15.719 0,12.703 -10.297,23 -23,23 -6.081,0 -11.606,-2.364 -15.719,-6.219 4.16,4.144 9.883,6.719 16.219,6.719 12.703,0 23,-10.298 23,-23 0,-6.335 -2.575,-12.06 -6.719,-16.219 z" />
  <path
     style="opacity:0.1"
     inkscape:connector-curvature="0"
     id="path25"
     d="m 41.28,8.781 c 3.712,4.085 5.969,9.514 5.969,15.469 0,12.703 -10.297,23 -23,23 -5.954,0 -11.384,-2.256 -15.469,-5.969 4.113,3.854 9.637,6.219 15.719,6.219 12.703,0 23,-10.298 23,-23 0,-6.081 -2.364,-11.606 -6.219,-15.719 z" />
  <path
     style="opacity:0.2"
     inkscape:connector-curvature="0"
     id="path27"
     d="M 31.25,2.375 C 39.865,5.529 46,13.792 46,23.505 c 0,12.426 -10.07,22.5 -22.5,22.5 -9.708,0 -17.971,-6.135 -21.12,-14.75 a 23,23 0 0 0 44.875,-7 23,23 0 0 0 -16,-21.875 z" />
  <path
     inkscape:connector-curvature="0"
     style="fill:url(#linearGradient3945);fill-opacity:1"
     id="path31"
     d="M 24,1 C 36.703,1 47,11.297 47,24 47,36.703 36.703,47 24,47 11.297,47 1,36.703 1,24 1,11.297 11.297,1 24,1 z" />
  <path
     style="opacity:0.1;fill:#000000;fill-opacity:1;stroke:none"
     d="M 28 12 C 18 12 13 19 13 25 C 13 31 18 38 28 38 C 22 34.430749 19 31 19 25 C 19 19 22 15.569251 28 12 z M 27.625 16.4375 L 27.1875 18.65625 C 26.647949 18.801166 26.133079 19.01949 25.65625 19.28125 L 23.6875 18.03125 L 21.78125 19.875 L 23.0625 21.78125 C 22.792344 22.243254 22.587065 22.727224 22.4375 23.25 L 20.15625 23.6875 L 20.15625 26.34375 L 22.4375 26.78125 C 22.587065 27.304028 22.792344 27.819245 23.0625 28.28125 L 21.78125 30.15625 L 23.6875 32.03125 L 25.65625 30.75 C 26.133079 31.011758 26.647949 31.230084 27.1875 31.375 L 27.625 33.59375 L 30.375 33.59375 L 30.8125 31.375 C 31.35205 31.230084 31.866922 31.011758 32.34375 30.75 L 34.3125 32.03125 L 36.21875 30.15625 L 34.9375 28.28125 C 35.207657 27.819245 35.412934 27.304028 35.5625 26.78125 L 37.84375 26.34375 L 37.84375 23.6875 L 35.5625 23.25 C 35.412934 22.727224 35.207657 22.243254 34.9375 21.78125 L 36.21875 19.875 L 34.3125 18.03125 L 32.34375 19.28125 C 31.866922 19.01949 31.35205 18.801166 30.8125 18.65625 L 30.375 16.4375 L 27.625 16.4375 z M 29 22 C 30.656855 22 32 23.343145 32 25 C 32 26.656855 30.656855 28 29 28 C 27.343145 28 26 26.656855 26 25 C 26 23.343145 27.343145 22 29 22 z "
     id="path4027" />
  <path
     style="opacity:0.1"
     inkscape:connector-curvature="0"
     id="path73"
     d="m 40.03,7.531 c 3.712,4.084 5.969,9.514 5.969,15.469 0,12.703 -10.297,23 -23,23 C 17.045,46 11.615,43.744 7.53,40.031 11.708,44.322 17.54,47 23.999,47 c 12.703,0 23,-10.298 23,-23 0,-6.462 -2.677,-12.291 -6.969,-16.469 z" />
  <path
     style="opacity:1;fill:#352217;fill-opacity:1;stroke:none"
     d="M 27 11 C 17 11 12 18 12 24 C 12 30 17 37 27 37 C 21 33.430749 18 30 18 24 C 18 18 21 14.569251 27 11 z "
     id="path3075" />
  <path
     style="opacity:1;fill:#aba674;fill-opacity:1;stroke:none"
     d="M 27,11 C 17,11 12,18 12,24 12,30 17,37 27,37 19,35 15,30 15,24 15,18 19,13 27,11 z"
     id="path3847"
     inkscape:connector-curvature="0"
     sodipodi:nodetypes="cscsc" />
  <path
     style="fill:#aba674;fill-opacity:1;fill-rule:nonzero;stroke:none"
     d="M 26.625 15.4375 L 26.1875 17.65625 C 25.647949 17.801166 25.133079 18.01949 24.65625 18.28125 L 22.6875 17.03125 L 20.78125 18.875 L 22.0625 20.78125 C 21.792344 21.243254 21.587065 21.727224 21.4375 22.25 L 19.15625 22.6875 L 19.15625 25.34375 L 21.4375 25.78125 C 21.587065 26.304028 21.792344 26.819245 22.0625 27.28125 L 20.78125 29.15625 L 22.6875 31.03125 L 24.65625 29.75 C 25.133079 30.011758 25.647949 30.230084 26.1875 30.375 L 26.625 32.59375 L 29.375 32.59375 L 29.8125 30.375 C 30.35205 30.230084 30.866922 30.011758 31.34375 29.75 L 33.3125 31.03125 L 35.21875 29.15625 L 33.9375 27.28125 C 34.207657 26.819245 34.412934 26.304028 34.5625 25.78125 L 36.84375 25.34375 L 36.84375 22.6875 L 34.5625 22.25 C 34.412934 21.727224 34.207657 21.243254 33.9375 20.78125 L 35.21875 18.875 L 33.3125 17.03125 L 31.34375 18.28125 C 30.866922 18.01949 30.35205 17.801166 29.8125 17.65625 L 29.375 15.4375 L 26.625 15.4375 z M 28 19 C 30.761424 19 33 21.238576 33 24 C 33 26.761424 30.761424 29 28 29 C 25.238576 29 23 26.761424 23 24 C 23 21.238576 25.238576 19 28 19 z "
     id="path4837" />
  <path
     style="fill:#352217;fill-opacity:1;fill-rule:nonzero;stroke:none"
     d="M 28 19 C 25.238576 19 23 21.238576 23 24 C 23 26.761424 25.238576 29 28 29 C 30.761424 29 33 26.761424 33 24 C 33 21.238576 30.761424 19 28 19 z M 28 21 C 29.656855 21 31 22.343145 31 24 C 31 25.656855 29.656855 27 28 27 C 26.343145 27 25 25.656855 25 24 C 25 22.343145 26.343145 21 28 21 z "
     id="path3108" />
</svg>

<svg xmlns="http://www.w3.org/2000/svg" viewBox="0 0 48 48"><defs><linearGradient id="linearGradient3945" gradientUnits="userSpaceOnUse" gradientTransform="matrix(0,-1,1,0,-1.5e-6,47.999998)" x1="1" x2="47"><stop stop-color="#3d3d3d" stop-opacity="1"/><stop offset="1" stop-color="#474747" stop-opacity="1"/></linearGradient></defs><path d="m 36.31,5 c 5.859,4.062 9.688,10.831 9.688,18.5 0,12.426 -10.07,22.5 -22.5,22.5 -7.669,0 -14.438,-3.828 -18.5,-9.688 1.037,1.822 2.306,3.499 3.781,4.969 4.085,3.712 9.514,5.969 15.469,5.969 12.703,0 23,-10.298 23,-23 0,-5.954 -2.256,-11.384 -5.969,-15.469 C 39.81,7.306 38.132,6.037 36.31,5 z m 4.969,3.781 c 3.854,4.113 6.219,9.637 6.219,15.719 0,12.703 -10.297,23 -23,23 -6.081,0 -11.606,-2.364 -15.719,-6.219 4.16,4.144 9.883,6.719 16.219,6.719 12.703,0 23,-10.298 23,-23 0,-6.335 -2.575,-12.06 -6.719,-16.219 z" opacity="0.05"/><path d="m 41.28 8.781 c 3.712 4.085 5.969 9.514 5.969 15.469 0 12.703 -10.297 23 -23 23 -5.954 0 -11.384 -2.256 -15.469 -5.969 4.113 3.854 9.637 6.219 15.719 6.219 12.703 0 23 -10.298 23 -23 0 -6.081 -2.364 -11.606 -6.219 -15.719 z" opacity="0.1"/><path d="M 31.25,2.375 C 39.865,5.529 46,13.792 46,23.505 c 0,12.426 -10.07,22.5 -22.5,22.5 -9.708,0 -17.971,-6.135 -21.12,-14.75 a 23,23 0 0 0 44.875,-7 23,23 0 0 0 -16,-21.875 z" opacity="0.2"/><path d="M 24,1 C 36.703,1 47,11.297 47,24 47,36.703 36.703,47 24,47 11.297,47 1,36.703 1,24 1,11.297 11.297,1 24,1 z" fill="url(#linearGradient3945)" fill-opacity="1"/><path d="m 28 12 c -10 0 -15 7 -15 13 c 0 6 5 13 15 13 c -6 -3.569 -9 -7 -9 -13 c 0 -6 3 -9.431 9 -13 z m -0.375 4.438 l -0.438 2.219 c -0.54 0.145 -1.054 0.363 -1.531 0.625 l -1.969 -1.25 l -1.906 1.844 l 1.281 1.906 c -0.27 0.462 -0.475 0.946 -0.625 1.469 l -2.281 0.438 l 0 2.656 l 2.281 0.438 c 0.15 0.523 0.355 1.038 0.625 1.5 l -1.281 1.875 l 1.906 1.875 l 1.969 -1.281 c 0.477 0.262 0.992 0.48 1.531 0.625 l 0.438 2.219 l 2.75 0 l 0.438 -2.219 c 0.54 -0.145 1.054 -0.363 1.531 -0.625 l 1.969 1.281 l 1.906 -1.875 l -1.281 -1.875 c 0.27 -0.462 0.475 -0.977 0.625 -1.5 l 2.281 -0.438 l 0 -2.656 l -2.281 -0.438 c -0.15 -0.523 -0.355 -1.01 -0.625 -1.469 l 1.281 -1.906 l -1.906 -1.844 l -1.969 1.25 c -0.477 -0.262 -0.992 -0.48 -1.531 -0.625 l -0.438 -2.219 l -2.75 0 z m 1.375 5.563 c 1.657 0 3 1.343 3 3 c 0 1.657 -1.343 3 -3 3 c -1.657 0 -3 -1.343 -3 -3 c 0 -1.657 1.343 -3 3 -3 z" opacity="0.1" fill="#000" stroke="none" fill-opacity="1"/><path d="m 40.03,7.531 c 3.712,4.084 5.969,9.514 5.969,15.469 0,12.703 -10.297,23 -23,23 C 17.045,46 11.615,43.744 7.53,40.031 11.708,44.322 17.54,47 23.999,47 c 12.703,0 23,-10.298 23,-23 0,-6.462 -2.677,-12.291 -6.969,-16.469 z" opacity="0.1"/><path d="m 27 11 c -10 0 -15 7 -15 13 c 0 6 5 13 15 13 c -6 -3.569 -9 -7 -9 -13 c 0 -6 3 -9.431 9 -13 z" opacity="1" fill="#352217" stroke="none" fill-opacity="1"/><path d="M 27,11 C 17,11 12,18 12,24 12,30 17,37 27,37 19,35 15,30 15,24 15,18 19,13 27,11 z" opacity="1" fill="#aba674" stroke="none" fill-opacity="1"/><path d="m 26.625 15.438 l -0.438 2.219 c -0.54 0.145 -1.054 0.363 -1.531 0.625 l -1.969 -1.25 l -1.906 1.844 l 1.281 1.906 c -0.27 0.462 -0.475 0.946 -0.625 1.469 l -2.281 0.438 l 0 2.656 l 2.281 0.438 c 0.15 0.523 0.355 1.038 0.625 1.5 l -1.281 1.875 l 1.906 1.875 l 1.969 -1.281 c 0.477 0.262 0.992 0.48 1.531 0.625 l 0.438 2.219 l 2.75 0 l 0.438 -2.219 c 0.54 -0.145 1.054 -0.363 1.531 -0.625 l 1.969 1.281 l 1.906 -1.875 l -1.281 -1.875 c 0.27 -0.462 0.475 -0.977 0.625 -1.5 l 2.281 -0.438 l 0 -2.656 l -2.281 -0.438 c -0.15 -0.523 -0.355 -1.01 -0.625 -1.469 l 1.281 -1.906 l -1.906 -1.844 l -1.969 1.25 c -0.477 -0.262 -0.992 -0.48 -1.531 -0.625 l -0.438 -2.219 l -2.75 0 z m 1.375 3.563 c 2.761 0 5 2.239 5 5 c 0 2.761 -2.239 5 -5 5 c -2.761 0 -5 -2.239 -5 -5 c 0 -2.761 2.239 -5 5 -5 z" fill="#aba674" fill-rule="nonzero" stroke="none" fill-opacity="1"/><path d="m 28 19 c -2.761 0 -5 2.239 -5 5 c 0 2.761 2.239 5 5 5 c 2.761 0 5 -2.239 5 -5 c 0 -2.761 -2.239 -5 -5 -5 z m 0 2 c 1.657 0 3 1.343 3 3 c 0 1.657 -1.343 3 -3 3 c -1.657 0 -3 -1.343 -3 -3 c 0 -1.657 1.343 -3 3 -3 z" fill="#352217" fill-rule="nonzero" stroke="none" fill-opacity="1"/></svg>
